X:1
T:Anchor che co'l partire
T:Jean de Castro
T:Source : Chansons, madrigaux et motetz à 3 parties---Anvers---P.Phalèse---1582. Editor : André Vierendeels (02/02/16).
T:Notes : Original clefs  C1, C3, C4 Editorial accidentals above the staff
T:Anchor che co'l partire
T:©
T:©
T:©
T:©
T:©
T:©
T:©
T:©
C:Jean de Castro
Z:©
%%score [ 1 2 3 ]
L:1/8
Q:1/4=120
M:2/2
K:C
V:1 treble nm="Superius" snm="S"
V:2 treble nm="Alto" snm="A"
V:3 treble-8 nm="Tenor" snm="T"
V:1
 z8 | z8 | z8 | z4 E4- | E4 G4- | G2 E2 ^F4- | F4 G4 | (3A4 B4 c4 | B8 | z8 | c8 | B6 G2 | A4 B4 | %13
w: |||An-|* chor|_ che co'l|_ par-|ti- * *|re,||an-|chor che|co'l par-|
 c6 B2 | A2 G2 A4- | A4 ^G4 | z4 A4 | E8- | E4 A4 | A4 ^G4 | A8 | E8- | E8- | E8 | z8 | z4 G4 | %26
w: ti- *||* re,|io|mi|_ sen-|ta mo-|ri-|re,|_|||par-|
 A6 G2 | F4 G4 | E4 A4 |"^b" B2 c2 d4 | c4 z4 | z8 | d4 c2 A2 | B2 c2 d4 | c4 z2 c2 | B2 G2 A3 B | %36
w: tir vor-|rei ogn'|hor, o-|gni mo- men-|to,||tan- t'il pia-|cer ch'io sen-|to, tan-|t'il pia- cer ch'io|
 c4 B4 | z4 A4 | G2 E2 ^F3 G | A4 A4 | z4 A4- | A4 A4 | A8- | A4 B4 | c8- | c4 B4 | A4 G4 | F4 E4 | %48
w: sen- to,|tan-|t'il pia- cer ch'io|sen- to,|de|_ la|vi-|* ta|ch'ac-|* qui-|sto nel|ri- tor-|
 D4 A4 | c4 B4 | z4 ^G4 | A4 ^G2 G2 | A4 B4 | c3 c B2 G2 | A2 A2 G4 | E4 e3 e | d2 B2 c2 B2 | %57
w: no, et|co- si,|et|co- si, et|co- si|mil- l'e mil- l'e|volt' il gior-|no, mil- l'e|mil- l'e volt' il|
 A2 G2 z2 G2- | G2 A4 B2- | B2 c2 z2 c2 | c2 d2 B4 | A4 c4 | B2 G2 A4 | G8 | z2 c2 B3 G | A4 G4 | %66
w: gior- no par-|* tir da|_ voi, da|voi vor- re-|i, tan-|to son dol-|ci,|tan- to son|dol- ci|
 z2 c2 B2 G2 | A4 G2 G2 | F3 D E4 | ^F4 A4- | A4 c4 | c4 B4 | c8 | B4 z2 B2 | c4 B4 | z4 ^G4 | %76
w: tan- to son|dol- ci, tan-|to son dol-|ci gli|_ ri-|tor- ni|mie-|i, et|co- si,|et|
 A4 ^G2 G2 | A4 B4 | c3 c B2 G2 | A2 A2 G4 | E4 e3 e | d2 B2 c2 B2 | A2 G2 z2 G2- | G2 A4 B2- | %84
w: co- si, et|co- si|mil- l'e mil- l'e|volt' il gior-|no, mil- le|mil- l'e volt' il|gior- no, par-|* tir da|
 B2 c2 z2 c2 | c2 d2 B4 | A4 c4 | B2 G2 A4 | G8 | z2 c2 B3 G | A4 G4 | z2 c2 B2 G2 | A4 G2 G2 | %93
w: _ voi, da|voi vor- re-|i, tan-|to son dol-|ci,|tan- to son|dol- ci,|tan- to son|dol- ci, tan-|
 F3 D E4 | ^F4 A4- | A4 c4 | c4 B4 | c8- | c8 | B8- | B8 |] %101
w: to son dol-|ci gli|_ ri-|tor- ni|mie-||i.|_|
V:2
 z8 | z8 | D8 | C6 A,2 | B,8 | C4 D4- | D4 E4 | z4 E4- | E2 D4 E2 | C2 D4 E2- | E2 A,2 z2 A2 | %11
w: ||An-|chor che|co'l|par- ti-|* re,|an-|* chor che|co'l par- ti-|* re, an-|
 G6 E2 | ^F4 G4 | A8 | E4 z2 A,2 | B,8- | B,4 C4 | C4 B,4 | C8- | C4 B,4 | z4 C4 | C8- | C4 B,4 | %23
w: chor che|co'l par-|ti-|re io|mi|_ sen-|to mo-|ri-|* re,|mo-|ri-|* re,|
 z4 A,4 | F6 E2 | D4 E4 | ^C4 z2 D2 | D4 D4 | ^C4 C2 ^F2 | G2 A4 G2 | A8 | z2 A2 G2 E2 | ^F3 G A4 | %33
w: par-|tir vor-|rei ogn'|hor, o-|gni mo-|men- to, o-|gni mo- men-|to,|tant' il pia-|cer ch'io sen-|
 E4 z4 | A4 G2 E2 | G2 G2 F4 | E4 z2 E2 | D2 B,2 C3 D | E4 D4 | z2 F2 E2 C2 | D2 E2 F4 | E4 F4- | %42
w: to,|tant' il pia-|cer ch'io sen-|to, tant'|il pia- cer ch'io|sen- to,|tant'- il pia-|cer ch'io sen-|to de|
 F4 E4 | ^F4 G4 | A8- | A4 G4 | F4 D4 | D4 ^C4 | D4 z2 A,2 | A4 G4 | z4 E4 | D4 E2 E2 | %52
w: _ la|vi- ta|ch'ac-|* qui-|sto nel|ri- tor-|no, et|co- si,|et|co- si, et|
"^-natural" E4 G4 | E3 C D2 E2 | D2 C4 B,2 | C4 z4 | G3 G F2 D2 | E2 C2 D4 | E2 E2 ^F4 | G4 A4- | %60
w: co- si|mil' l'e mil- l'e|volt' il gior-|no,|mil- l'e mil- l'e|volt' il gior-|no par- tir|da voi|
 A2 A2 ^G4 | A4 z2 A2 | G2 E2 F4 | E2 E2 D2 E2 | C4 D2 G2 | F2 D2 E4 | C2 C2 D2 E2- | E2 D2 E2 E2 | %68
w: _ vor- re-|i, tan-|to son dol-|ci, tan- to son|dol- ci, tan-|to son dol-|ci, tan- to son|_ dol- ci, tan-|
 D2 D2 ^C4 |"^-natural" D4 F4 | E4 E4- | E4 E4- | E4 A4 | ^G4 z2 G2 |"^#" A4 G4 | z4 E4 | %76
w: to son dol-|ci gli|ri- tor-|* ni|_ mie-|i, et|co- si,|et|
 D4 E2 E2 | E4 G4 | E3 C D2 E2 | D2 C4 B,2 | C4 z4 | G3 G F2 D2 | E2 C2 D4 | E2 E2 ^F4 | G4 A4- | %85
w: co- si, et|co- si|mil- l'e mil- l'e|volt' il gior-|no,|mil- l'e mil- l'e|volt' il gior-|no, par- tir|da voi|
"^#" A2 A2 G4 | A4 z2 A2 | G2 E2 F4 | E2 E2 D2 E2 | C4 D2 G2 | F2 D2 E4 | C2 C2 D2 E2- | %92
w: _ vor- re-|i, tan-|to son dol-|ci, tan- to son|dol- ci, tan-|to son dol-|ci, tan- to son|
 E2 D2 E2 E2 | D2 D2 ^C4 |"^-natural" D4 F4 | E8 | E8- | E4 E4 | A8 | ^G8- | G8 |] %101
w: _ dol- ci, tan-|to son dol-|ci gli|ri-|tor-|* ni|mie-|i.|_|
V:3
 A8 | G6 E2 | ^F4 G4 | A8 | E8 | z8 | z8 | A8 | G6 E2 | F4 G4 | A8 | E8 | z8 | z8 | A8 | E8- | %16
w: An-|chor che|co'l par-|ti-|re,|||an-|chor che|co'l par-|ti-|re,|||io|mi|
 E4 A4 | A4 ^G4 | A8 | E8 | z4 A4 | A8- | A4 E4 | z4 ^c4 |"^-natural" d6 c2 | B4 c4 | A4 D4 | %27
w: _ sen-|to mo-|ri-|re,|mo-|ri-|* re,|par-|tir vor-|rei ogn'|hor o-|
 _B4 G4 | A4 A2 D2 | G2 F2 _B4 | A4 z2 d2 | c2 A2 B2 c2 | d4 A4 | z2 c2 B2 G2 | A3 B c4 | G4 z4 | %36
w: gni mo-|men- to, o-|gni mo- men-|to, tant'|il pia- cer ch'io|sen- to,|tant' il pia-|cer mio sen-|to,|
 A4 G2 E2 | F2 G2 A4 | E4 z4 | d4 c2 A2 | B2 c2 d4 | A4 d4- | d4 ^c4 | d4 G4 | z4 F4 | F4 G4 | %46
w: tant' il pia-|cer ch'io sen-|to,|tant' il pia-|cer ch'io sen-|to de|_ la|vi- ta|ch'ac-|qui- sto|
"^b" A4 B4 | A8 | D8 | z4 E4 | A4 E4 | z4 E4 | A4 E4 | A3 A G2 E2 | F2 F2 G4 | C4 c3 c | %56
w: nel ri-|tor-|no,|et|co- si,|et|co- si|mil- l'e mil- l'e|volt' il gior-|no, mil- l'e|
 B2 G2 A2 B2 | c4 G4 | c4 d4 | e4 f4- | f2 d2 e4 | A8 | z8 | z2 c2 B2 G2 | A4 G4 | z8 | A4 G2 E2 | %67
w: mil- l'e volt il|gior- no,|par- tir|da voi|_ vor- re-|i,||tan- to son|dol- ci,||tan- to son|
 F4 E4 | z8 | D8 | A8 | A4 ^G4 | A8 | E8 | z4 E4 | A4 E4 | z4 E4 | A4 E4 | A3 A G2 E2 | F2 F2 G4 | %80
w: dol- ci,||gli|ri-|tor- ni|mie-|i,|et|co- si,|et|co- si|mil- l'e mil- l'e|volt' il gior-|
 A4 c3 c | B2 G2 A2 B2 | c4 G4 | c4 d4 | e4 f4- | f2 d2 e4 | A8 | z8 | z2 c2 B2 G2 | A4 G4 | z8 | %91
w: no, mil- l'e|mil- l'e volt' il|gior- no,|par- tir|da voi|_ vor- re-|i,||tan- to son|dol- ci,||
 A4 G2 E2 | F4 E4 | z8 | D8 | A8 | A4 ^G4 | A8- | A8 | E8- | E8 |] %101
w: tan- to son|dol- ci,||gli|ri-|tor- ni|mie-||i.|_|

